communes/6140.svg

<?xml version="1.0" encoding="UTF-8" standalone="no"?>
<!-- Created with Inkscape (http://www.inkscape.org/) -->
<svg
   xmlns:svg="http://www.w3.org/2000/svg"
   xmlns="http://www.w3.org/2000/svg"
   version="1.0"
   width="190.96527"
   height="220.77274"
  >
  <path
     d="M 82.288973,218.24842 C 74.502701,217.16668 60.774615,212.61794 53.237447,208.62234 C 29.02274,195.78565 10.420371,170.80934 4.5087587,143.19719 C 3.0973594,131.57997 1.4208639,134.63142 2.1964682,2 L 188.73885,2.31585 L 188.96527,72.125636 C 188.91347,134.14432 188.74022,141.38181 187.17772,146.80029 C 179.49129,174.00173 164.01939,193.28469 145.60137,204.67067 C 126.99944,218.03974 104.38026,219.94761 82.288973,218.24842 z"
     style="fill:#ffffff;fill-opacity:1;stroke:#000000;stroke-width:4;stroke-miterlimit:4;stroke-dasharray:none;stroke-opacity:1" />
  <path
     d="M 39.338696,59.429843 C 40.330706,36.619939 37.907909,27.569064 31.845236,11.261881 L 52.466193,11.261881 L 52.466193,35.800288 L 66.522631,35.800288 L 66.522631,11.261881 L 87.1213,11.261881 L 87.1213,35.800288 L 102.67587,35.800288 L 102.67587,11.261881 L 122.52263,11.261881 L 122.52263,35.800288 L 138.52263,35.800288 L 138.52263,11.261881 L 161.37126,11.261881 C 156.29559,26.808997 154.95477,43.24719 157.02808,59.429843"
     style="fill:#000000" />
  <path
     d="M 144.60014,60.81864 L 144.60014,167.88965 L 149.97478,167.88965 L 149.97478,191.82692 L 45.022631,191.82692 L 45.022631,167.88965 C 45.591239,167.8209 49.894447,167.95895 50.581947,167.88965 L 50.581947,60.81864"
     style="fill:#000000" />
  <path
     d="M 100.30641,69.300288 L 91.522631,69.300288 L 91.522631,90.415284 L 100.30641,90.415284 L 100.30641,69.300288 z"
     style="fill:#ffffff;fill-opacity:1" />
</svg>

<?xml version="1.0" encoding="UTF-8"?>
<svg version="1.0" viewBox="0 0 190.97 220.77" xmlns="http://www.w3.org/2000/svg">
<path d="m82.289 218.25c-7.7863-1.0817-21.514-5.6305-29.052-9.6261-24.215-12.837-42.817-37.813-48.729-65.425-1.4114-11.617-3.0879-8.5658-2.3123-141.2l186.54 0.31585 0.22642 69.81c-0.0518 62.019-0.22505 69.256-1.7876 74.675-7.6864 27.201-23.158 46.484-41.576 57.87-18.602 13.369-41.221 15.277-63.312 13.578z" fill="#fff" stroke="#000" stroke-width="4"/>
<path d="m39.339 59.43c0.99201-22.81-1.4308-31.861-7.4935-48.168h20.621v24.538h14.056v-24.538h20.599v24.538h15.555v-24.538h19.847v24.538h16v-24.538h22.849c-5.0757 15.547-6.4165 31.985-4.3432 48.168"/>
<path d="m144.6 60.819v107.07h5.3746v23.937h-104.95v-23.937c0.56861-0.06875 4.8718 0.0693 5.5593 0v-107.07"/>
<path d="m100.31 69.3h-8.7838v21.115h8.7838v-21.115z" fill="#fff"/>
</svg>
